X:1
T:FADO DO BRANCO E NEGRO
T:FADO DO BRANCO E NEGRO
T:por Arthur Davies Abohbot Tavares de Mello (1899)
T:in fadoteca.blogspot.com
%%score { 1 | 2 }
L:1/8
Q:1/4=50
M:2/4
K:Bb
V:1 treble nm="Piano" snm="Pno."
V:2 bass 
V:1
"^Moderato""_p" f ||S f!arpeggio!!>![dfb]- [dfb]/f/g/d/ | e !>![Ae]2 f | %3
 f!arpeggio!!>![efac']- [efac']/f/g/e/ | d !>![FBd]2 g | %5
!<(! g!arpeggio!!>![fg_bd']- [fgbd']/g/a/g/!<)! | [ec']!>![ce] !>![eg]!>![gb] | %7
!>(! !>![fa][cfa]- [cfa]/[ce]/[df]/[eg]/!>)! | [df]3 g | %9
!<(! g!arpeggio!!>![fg=bd']- [fgbd']/g/_a/g/!<)! | [ec']!>![ce] !>![eg]!>![gb] | %11
!>(! [fa]!>![dg]- [dg]/(f/e/A/)!>)! | B3!fine! || G ||[K:Eb] B>G B/G/c/G/ | A !>![DA]2 A | %16
 c>A (c/A/d/e/) | c !>![GB]2 e | f>e (d/f/e/c/) | e !>![Ad]2 c | e>d c/e/d/B/ | c !>![GB]2 G | %22
 F(C/F/) (A/F/A/c/) | e[GB]- [GB]/c/d/e/ | d!>![FA]- [FA]/B/c/d/ | c !>!G2 G | F(C/F/) (A/F/A/c/) | %27
 e!>![GB]- [GB]/c/d/e/ | [cf]!>![Ac]- [Ac]/(e/d/B/) | [Ge]3 f!D.S.! |] %30
V:2
 z || (B,,/D,/F,/B,/) D{/=E}F | C/F/E/F/ C/F/A,/C/ | (F,/A,/C/F/) F,{/=E}F | %4
 B,/D/F,/B,/ D,/F,/B,,/D,/ | (G,,/=B,,/D,/G,/) =B,{/^F}G | C/E/G,/C/ E,/G,/C,/E,/ | %7
 (F,/A,/C/F/) F,{/=E}F | B,/D/F,/B,/ D,/F,/B,,/D,/ | (G,,/=B,,/D,/G,/) =B,{/^F}G | %10
 C/E/G,/C/ E,/G,/C,/E,/ | (F,/A,/D/F/) F,{/=E}F | B,/F,/D,/F,/ B,, || z || %14
[K:Eb] (E,,/G,,/B,,/E,/) G,{/=A,}B, | F,/B,/A,/B,/ F,/B,/D,/F,/ | (B,,/F,/A,/B,/) B,,{/=A,}B, | %17
 E,/E/D/E/ B,/E/G,/B,/ | (E,/G,/B,/E/) E,{/D}E | A,/C/F,/A,/ C,/F,/A,,/C,/ | %20
 (B,,/D,/F,/B,/) B,,{/=A,}B, | (E,/G,/B,/E/) E, z | (A,/C,/F,/A,/) C{/=E}F | %23
 (B,/E,/G,/B,/) E{/=A}B | (B,,/D,/F,/B,/) B,,{/=A,}B, | (E,/G,/B,/E/) E, z | %26
 (A,/C,/F,/A,/) C{/=E}F | (B,/E,/G,/B,/) E{/=A}B | (A,,/C,/F,/A,/) B,,{/=A,}B, | %29
 E,/B,,/G,,/B,,/ E,, z |] %30

